X: 83
T: Boże nasz, u którego w ręku wszytki boje,
C: Mikołaj Gomółka
%%abc-version 2.0
%%abcx-abcm2ps-target-version 5.9.1 (29 Sep 2008)
%%abc-creator hum2abc beta
%%abcx-conversion-date 2021/10/04 07:59:09
%%abc-edited-by Anna Matuszewska
%%abcx-initial-encoding-date 2020-02-23
%%humdrum-veritas 3777813428
%%humdrum-veritas-data 723324706
%%linebreak <none>
%%barnumbers 0
L: 1/4
M: C|
N: Derived from pl-wn--sd-xvi-qu-273--084_gomolka-mikolaj--boze-nasz-u-ktorego-w-reku-wszytki-boje.krn
%%staves [1 2 3 4]
V: 1
V: 2 clef=alto
V: 3 clef=alto
V: 4 clef=bass
K: C
[V:1] G4G4 | 
[V:2] D4D4 | 
[V:3] B,4B,4 | 
[V:4] G,4G,4 [|] 
[V:1] G2A2A2G2 | 
[V:2] E2F2F2ED | 
[V:3] C2C2D2B,2 | 
[V:4] C,2F,2D,2E,2 [|] 
[V:1] A2B2c3B | 
[V:2] C2F2G3G | 
[V:3] A,2D2E3D | 
[V:4] F,2D,2C,2E,2 [|] 
[V:1] A2G4F2 | 
[V:2] FEDC2<D2C | 
[V:3] CB,B,A,/G,/A,4 | 
[V:4] F,2G,2D,4 [|] 
[V:1] G2G2E2F2 | 
[V:2] B,2B,2C2C2 | 
[V:3] G,2D2E2DC | 
[V:4] G,,2G,2C2A,2 [|] 
[V:1] G4G2B2 | 
[V:2] DE2DEFG3 | 
[V:3] B,C2B,C2D2 | 
[V:4] G,4C,2G,2 [|] 
[V:1] c2e2d3c | 
[V:2] FE2F3E | 
[V:3] EFG4F2 | 
[V:4] C,2C,2D,4 [|] 
[V:1] B2c2c4 | 
[V:2] D2E2E3F | 
[V:3] G2C2C4 | 
[V:4] G,,2C,2A,,B,,C,D, [|] 
[V:1] B2B2A2zA | 
[V:2] G2G2F2zF | 
[V:3] G,A,B,CD2zC | 
[V:4] E,F,G,2D,2zF, [|] 
[V:1] G2G2E2F4 | 
[V:2] E2D2C2D4 | 
[V:3] C2B,A,G,2_B,4 | 
[V:4] C,2G,,2C,2_B,,4 [|] 
[V:1] E2D4 | 
[V:2] C4B,2 | 
[V:3] G,2G,4 | 
[V:4] C,2G,,4 [|] 
[V:1] E2c2c4 | 
[V:2] C2G2G4 | 
[V:3] G,2C2E4 | 
[V:4] C,2C,2>D,2E,F, [|] 
[V:1] G4A2F2 | 
[V:2] G4F2D2 | 
[V:3] D4A,2A,2 | 
[V:4] G,2G,,2D,4 [|] 
[V:1] G2>F2E2FE | 
[V:2] D4A,B,C2 | 
[V:3] B,2B,2C2A,2 | 
[V:4] G,,4A,,2F,,2 [|] 
[V:1] DE2DE8 | 
[V:2] G,>A,B,2G,16 | 
[V:3] B,C2B,C16 | 
[V:4] G,,4C,16 [|] 
[V:1] F4 | 
[V:2]  | 
[V:3]  | 
[V:4]  [|] 
[V:1] A2F2 | 
[V:2]  | 
[V:3]  | 
[V:4]  | 


